X:023 
T:Bridal Polka, The 
F:file ID: cre.5/023bridal
B:CRE5.094 (Polca na BrÃÂÃÂÃÂÃÂ­dÃÂÃÂÃÂÃÂ­)
N:No repeats in source.
M:2/4
L:1/8
%%Q:120
R:polka
K:D
FA/A/B/c/|Af gf|Ae fe|Ad ed|
FA/A/B/c/|Af gf|Ae f>e|dcd2:|
K:G
|:gf e/d/^c/d/|ed d/c/B/c/|dc c/B/A/B/|cBA/G/|
gf e/d/^c/d/|ed d/c/B/c/|dc c/B/A/F/|GF G2:|
[2  "last time"GFG2-|G4|]

%%%

